src/svg/iconoQuienes.svg

<svg xmlns="http://www.w3.org/2000/svg" xmlns:xlink="http://www.w3.org/1999/xlink" width="50px" zoomAndPan="magnify" viewBox="0 0 375 374.999991" preserveAspectRatio="xMidYMid meet" version="1.0"><defs><clipPath id="334354867e"><path d="M 22.046875 22.046875 L 352.796875 22.046875 L 352.796875 352.796875 L 22.046875 352.796875 Z M 22.046875 22.046875 " clip-rule="nonzero"/></clipPath></defs><rect x="-37.5" width="450" fill="#ffffff" y="-37.499999" height="449.999989" fill-opacity="1"/><rect x="-37.5" width="450" fill="#ffffff" y="-37.499999" height="449.999989" fill-opacity="1"/><rect x="-37.5" width="450" fill="#efeadd" y="-37.499999" height="449.999989" fill-opacity="1"/><g clip-path="url(#334354867e)"><path fill="#ec7e29" d="M 187.429688 22.046875 C 233.101562 22.046875 274.449219 40.5625 304.375 70.488281 C 334.304688 100.417969 352.816406 141.765625 352.816406 187.429688 C 352.816406 233.101562 334.304688 274.449219 304.375 304.375 C 274.449219 334.304688 233.101562 352.816406 187.429688 352.816406 C 141.765625 352.816406 100.417969 334.304688 70.488281 304.375 C 40.558594 274.449219 22.046875 233.101562 22.046875 187.429688 C 22.046875 141.765625 40.558594 100.417969 70.488281 70.488281 C 100.417969 40.5625 141.765625 22.046875 187.429688 22.046875 " fill-opacity="1" fill-rule="nonzero"/></g><path fill="#f9a825" d="M 187.429688 45.222656 C 226.699219 45.222656 262.253906 61.140625 287.988281 86.875 C 313.726562 112.609375 329.644531 148.160156 329.644531 187.429688 C 329.644531 226.703125 313.726562 262.253906 287.988281 287.988281 C 262.253906 313.726562 226.699219 329.644531 187.429688 329.644531 C 148.160156 329.644531 112.609375 313.726562 86.875 287.988281 C 61.140625 262.253906 45.222656 226.699219 45.222656 187.429688 C 45.222656 148.160156 61.140625 112.609375 86.875 86.875 C 112.609375 61.140625 148.160156 45.222656 187.429688 45.222656 " fill-opacity="1" fill-rule="nonzero"/><path fill="#f5f5f5" d="M 212.035156 174.664062 L 212.035156 249.390625 C 214.75 247.667969 218.207031 244.980469 222.210938 240.804688 C 223.394531 239.277344 225.34375 238.410156 227.394531 238.703125 C 230.433594 239.136719 232.546875 241.949219 232.117188 244.988281 L 232.105469 244.988281 C 230.777344 254.292969 224.035156 266.347656 215.078125 275.382812 C 207.121094 283.40625 197.234375 289.277344 187.429688 289.277344 C 180.660156 289.277344 174.511719 286.511719 170.054688 282.054688 C 165.597656 277.597656 162.832031 271.449219 162.832031 264.675781 L 162.832031 189.949219 C 160.113281 191.675781 156.65625 194.359375 152.65625 198.535156 C 151.46875 200.0625 149.519531 200.929688 147.46875 200.636719 C 144.429688 200.207031 142.3125 197.386719 142.75 194.347656 L 142.757812 194.347656 C 144.082031 185.046875 150.828125 172.992188 159.785156 163.960938 C 167.746094 155.9375 177.625 150.0625 187.429688 150.0625 C 194.203125 150.0625 200.355469 152.828125 204.808594 157.285156 C 209.265625 161.738281 212.035156 167.894531 212.035156 174.664062 " fill-opacity="1" fill-rule="evenodd"/><path fill="#f5f5f5" d="M 181.109375 85.585938 C 188.296875 85.585938 194.804688 88.503906 199.515625 93.214844 C 204.226562 97.925781 207.140625 104.429688 207.140625 111.617188 C 207.140625 118.808594 204.226562 125.3125 199.515625 130.023438 C 194.804688 134.734375 188.296875 137.652344 181.109375 137.652344 C 173.921875 137.652344 167.417969 134.734375 162.703125 130.023438 C 157.992188 125.3125 155.078125 118.808594 155.078125 111.617188 C 155.078125 104.429688 157.992188 97.925781 162.703125 93.214844 C 167.417969 88.503906 173.921875 85.585938 181.109375 85.585938 " fill-opacity="1" fill-rule="evenodd"/></svg>

<?xml version="1.0" encoding="UTF-8"?>
<svg width="50px" version="1.0" viewBox="0 0 375 375" xmlns="http://www.w3.org/2000/svg" zoomAndPan="magnify">
<defs>
<clipPath id="a">
<path d="m22.047 22.047h330.75v330.75h-330.75z"/>
</clipPath>
</defs>
<rect x="-37.5" y="-37.5" width="450" height="450" fill="#fff"/>
<rect x="-37.5" y="-37.5" width="450" height="450" fill="#fff"/>
<rect x="-37.5" y="-37.5" width="450" height="450" fill="#efeadd"/>
<g clip-path="url(#a)">
<path d="m187.43 22.047c45.672 0 87.02 18.516 116.95 48.441 29.93 29.93 48.441 71.277 48.441 116.94 0 45.672-18.512 87.02-48.441 116.95-29.926 29.93-71.273 48.441-116.95 48.441-45.664 0-87.012-18.512-116.94-48.441-29.93-29.926-48.441-71.273-48.441-116.95 0-45.664 18.512-87.012 48.441-116.94 29.93-29.926 71.277-48.441 116.94-48.441" fill="#ec7e29"/>
</g>
<path d="m187.43 45.223c39.27 0 74.824 15.918 100.56 41.652 25.738 25.734 41.656 61.285 41.656 100.55 0 39.273-15.918 74.824-41.656 100.56-25.734 25.738-61.289 41.656-100.56 41.656-39.27 0-74.82-15.918-100.55-41.656-25.734-25.734-41.652-61.289-41.652-100.56 0-39.27 15.918-74.82 41.652-100.55s61.285-41.652 100.55-41.652" fill="#f9a825"/>
<path d="m212.04 174.66v74.727c2.7148-1.7227 6.1719-4.4102 10.176-8.5859 1.1836-1.5273 3.1328-2.3945 5.1836-2.1016 3.0391 0.43359 5.1523 3.2461 4.7227 6.2852h-0.011719c-1.3281 9.3047-8.0703 21.359-17.027 30.395-7.957 8.0234-17.844 13.895-27.648 13.895-6.7695 0-12.918-2.7656-17.375-7.2227-4.457-4.457-7.2227-10.605-7.2227-17.379v-74.727c-2.7188 1.7266-6.1758 4.4102-10.176 8.5859-1.1875 1.5273-3.1367 2.3945-5.1875 2.1016-3.0391-0.42969-5.1562-3.25-4.7188-6.2891h0.007812c1.3242-9.3008 8.0703-21.355 17.027-30.387 7.9609-8.0234 17.84-13.898 27.645-13.898 6.7734 0 12.926 2.7656 17.379 7.2227 4.457 4.4531 7.2266 10.609 7.2266 17.379" fill="#f5f5f5" fill-rule="evenodd"/>
<path d="m181.11 85.586c7.1875 0 13.695 2.918 18.406 7.6289 4.7109 4.7109 7.625 11.215 7.625 18.402 0 7.1914-2.9141 13.695-7.625 18.406-4.7109 4.7109-11.219 7.6289-18.406 7.6289s-13.691-2.918-18.406-7.6289c-4.7109-4.7109-7.625-11.215-7.625-18.406 0-7.1875 2.9141-13.691 7.625-18.402 4.7148-4.7109 11.219-7.6289 18.406-7.6289" fill="#f5f5f5" fill-rule="evenodd"/>
</svg>
